X: 1
T: Kolomeike
O: Ukraine
B: Kammen v.1 #21 p.23
M: 2/4
L: 1/16
%%slurgraces 1
K: Dm
"A"\
|: "Dm"{a=b^c'}[d'2f2] [a4f4] [a2f2] \
|  "Gm"[g2e2][g2d2]   "A7"[a3^c3][ge] \
|1,3 "Dm"[f2d2][e2^c2]  "A7"[f2d2][g2e2] \
|  "Dm"[a2f2]z2      "A7"k[a4e4] \
:|2,4"Dm"[f2d2][f2d2A2] "A7"[e2^c2G2][e2c2G2] \
|  "Dm"[d2A2F2]z2     "A7"[d2A2E2]z2 :|
"B"\
|: "A7"e2A2  a3g \
|  "Dm"f2ef  gfed \
|  "A7"^c2de A2=Bc \
|1,3 "Dm"d2de f2d2 \
:|2,4"Dm"d2z2 k[d2AF2]z2 :|

%%sep 1 1 500
%%sep 1 1 500

